!!!!SEGMENT: pl-wnifc--6802-n--002_worobecki-jozef--mazur-no-1.krn
!!!cenid: 18xx:4050
!!!COM: Worobecki, Józef
!!!COM-rismID: pe50048108
!!!CDT:
!!!CNT:
!!!OTL: Mazur No. 1
!!!PDT:
!!!AGN:
!!!SMS-siglum: PL-Wnifc
!!!SMS-shelfmark: 6802/n
!!!SMS-shelfwork: 002 W
!!!SMS-variant:
!!!SMS-altvar:
!!!NIFC-rismSourceID: 1001158042
!!!NIFC-rismChildID: 1001158042
!!!NIFC-islandoraID: nifc:213559
!!!URL-pdf-islandora: https://repozytorium.nifc.pl/islandora/object/nifc%3A213559/datastream/PDF/view
!!!URL-scan: https://polish.musicsources.pl/pl/lokalizacje/galeria/druki-muzyczne/16922-3-mazury/3 @EN{Scan on Polish Music Sources Website} @PL{Skany w portalu Dziedzictwo Muzyki Polskiej w otwartym dostępie}
!!!ONB-nifc: UWAGA: w zbiorze: 1. Introdukcja, 2. Mazur No. 1, 3. Mazur No. 2, 4. Mazur No. 3, 5. Coda
!!!AIN: 2 piano
!!!key: G
**kern	**kern	**dynam
*part2	*part1	*part1
*staff2	*staff1	*
*I"Pianoforte	*I"Pianoforte	*
*I'pf	*I'pf	*
*ICklav	*ICklav	*
*Ipiano	*Ipiano	*
*clefF4	*clefG2	*
*k[f#]	*k[f#]	*
*G:	*G:	*
*M3/8	*M3/8	*
=1	=1	=1
!	!LO:TX:t=[segno]:problem:znak segno na kresce taktowej	!
8GGG/ 8GG	16.g\LL 16.b	mf
.	32g\JJk 32b	.
8D\L 8G 8B	8g\L 8b	.
8D\J 8G 8B	8a\J 8cc	.
=2	=2	=2
*	*Xtuplet	*
!	!LO:TUP:a:problem:klamra łukowa	!
8GGG/ 8GG	24b\LL 24dd	.
.	24b\ 24dd	.
.	24b\JJ 24dd	.
8D\L 8G 8B	8.b\L 8.gg	.
8BBB/J 8BB	.	.
.	16dd\Jk 16ff#	.
=3	=3	=3
!	!LO:TUP:a:problem:klamra łukowa	!
8CC/L 8C	24cc\LL 24ee	.
.	24cc\ 24ee	.
.	24cc\JJ 24ee	.
8EE/ 8E	8.ee\L 8.gg	.
8FF#/J 8F#	.	.
.	16cc\Jk 16ee	.
=4	=4	=4
8GG/ 8G	8b\ 8dd	.
4G\ 4B 4d	4g\ 4b	.
=5	=5	=5
.	(8qaa/	f
8DD/ 8D	8eee\)	.
4D\ 4A 4c	4cc\ 4dd 4ff#	.
!!LO:LB:g=original	!	!
=6	=6	=6
8GG\L 8G	(16.gg\LL	.
.	32aa\K	.
8D\ 8G 8B	16.bb\	.
.	32ff#\K	.
8D\J 8G 8B	16.gg\	.
.	32ee\JJk)	.
=7	=7	=7
8DD\L 8D	16.dd\LL	.
.	32ff#\JJk	.
8D\ 8F# 8c	8.dd^<\L 8.aa	.
8D\J 8A 8c	.	.
.	16ff#\Jk	.
=8	=8	=8
.	8qaa/	.
8GG\L 8G	(>16.gg\LL	.
.	32ff#\K	.
8D\ 8G 8B	16.gg\	.
.	32bb\K	.
8D\J 8G 8B	16.eee\	.
.	32ddd\JJk)	.
=9	=9	=9
8DD\L 8D	(16.eee\LL	.
.	32ddd\JJk	.
8D\ 8F# 8c	8.ccc\L)	.
8D\J 8A 8c	.	.
.	16ff#\Jk	.
=10	=10	=10
!	!LO:N:vis=16	!
8GG\L 8D 8G	(16.gg\LL	.
.	32aa\K	.
8D\ 8G 8B	16.bb\	.
.	32ff#\K	.
8D\J 8G 8B	16.gg\	.
.	32ee\JJk)	.
!!LO:LB:g=original	!	!
=11	=11	=11
8DD\L 8D	8ddsS\L	.
8D\ 8F# 8c	(16.ff#\L	.
.	32ee\K	.
8D\J 8F# 8c	16.cc\	.
.	32a\JJk)	.
=12	=12	=12
8G\ 8B	8g/	.
!	!LO:TX:i:B:b:t=fine.	!
4GG/	4g\ 4b 4gg	.
=13!|:	=13!|:	=13!|:
!	!LO:TUP:a:problem:klamra łukowa	!
8DD\L 8D	24ff#\LL	f
.	24aa\	.
.	24ddd\JJ	.
8A\ 8d 8f#	8ff#\L 8fff#	.
8A\J 8c#X 8g	8ee\J 8eee	.
=14	=14	=14
8DD\L 8D	16ee\LL 16eee	.
.	16dd\JJ 16ddd	.
8A\ 8d 8f#	8.dd\L 8.ddd	.
8A\J 8d 8f#	.	.
.	16cc#X\Jk 16ccc#X	.
=15	=15	=15
8DD\L 8D	16.b\LL 16.bb	.
.	32g\JJk 32gg	.
8D\ 8G 8B	8.dd\L 8.ddd	.
8D\J 8G 8B	.	.
.	16b\Jk 16bb	.
!!LO:LB:g=original	!	!
=16	=16	=16
8DD\L 8D	16a\LL 16aa	.
.	16g#X\JJ 16gg#X	.
8D\ 8F# 8A	8b\L 8bb	.
8D\J 8F# 8A	8a\J 8aa	.
=17	=17	=17
.	(8qa/	.
8AAA/L 8AA	16aa\LL)	.
.	16gg#X\JJ	.
8A\ 8c#X 8g	8.ggn\L	.
8A\J 8c# 8g	.	.
.	16ee\Jk	.
=18	=18	=18
8DD\L 8D	(16.ff#\LL	.
.	32cc#X\K	.
8A\ 8d 8f#	16.ee\	.
.	32dd\K	.
8A\J 8d 8f#	16.cc#\	.
.	32b\JJk)	.
=19	=19	=19
8AAA/L 8AA	(16a\LL	.
.	32b\L	.
.	32a\JJJ	.
8A\ 8e 8g	16.g#X/LL	.
.	32a/K	.
8A\J 8e 8g	16.b/)	.
.	32cc#X/JJk	.
=20	=20	=20
8d\ 8f#	(16ee\LL	.
.	16dd\JJ)	.
!LO:TX:B:i:b:t=dal Segno al Fine	!	!
4DD/ 4D	4f#^^\ 4dd	.
!!LO:PB:g=original	!	!
==21	==21	==21
*clefF4	*clefG2	*
*k[]	*k[]	*
*M3/8	*M3/8	*
!	!LO:TX:a:B:t=Trio	!
!	!LO:TX:b:i:t=energico.	!
8CC/L 8C	16.gg\LL	p
.	32ccc\JJk	.
8G\ 8c 8e	8bb\L	.
!	!LO:N:vis=16	!
8G\J 8c 8e	16.ff\L	.
.	32ee\JJk	.
=22	=22	=22
8FF\L 8F	16.dd\LL	.
.	32dd\JJk	.
8F\ 8A 8d	8.ff\L	.
8F\J 8A 8d	.	.
.	16ee\Jk	.
=23	=23	=23
8GG\L 8G	(16dd/LL	.
.	16g/	.
8G\ 8d 8f	16f#X/	.
.	16g/	.
8G\J 8d 8f	16a/	.
.	16b/JJ)	.
!!LO:LB:g=original	!	!
=24	=24	=24
*^	*	*
!	!LO:N:vis=4	!	!
8CC/L	8D\	16.cc\LL	.
.	.	32ee\JJk	.
8G\ 8c 8e	8ryy	8gg\L	.
.	.	(8qaa/	.
8G\J 8c 8e	8ryy	16.gg\L)	.
.	.	32ff#X\JJk	.
*v	*v	*	*
=25	=25	=25
8CC/L 8C	16.gg\LL	.
.	32ccc\JJk	.
*	*tuplet	*
!	!LO:TUP:a:problem:klamra łukowa	!
!	!LO:N:vis=16	!
8G\ 8c 8e	12gg\L	.
.	48aa\LL	.
.	48gg\JJJ	.
8G\J 8c 8e	16.ff\LL	.
.	32ee\JJk	.
=26	=26	=26
!	!LO:N:vis=16	!
8FF\L 8F	16.dd\LL	.
.	32ff\JJk	.
!	!LO:N:vis=8	!
8F\ 8A 8d	8.aa^^\L	.
8F\J 8A 8d	.	.
.	16gg\Jk	.
=27	=27	=27
8GG\L 8G	(16.ff/LL	.
.	32g/K	.
8G\ 8d 8f	16.a#X/	.
.	32g/K	.
8G\J 8d 8f	16.a#/	.
.	32b/JJk)	.
=28	=28	=28
8c\ 8e	8cc\	.
!LO:TX:b:i:B:t=Mazur da Capo.	!	!
4CC/ 4C	4ee\ 4ccc	.
==	==	==
*-	*-	*-
!!!system-decoration: {(s1,s2)}
!!!RDF**kern: > = above
!!!RDF**kern: < = below
!!!ENC: Filip Voros
!!!END: 2022-08-14
!!!ENC: Jan Barakat
!!!END: 2022-09-15
!!!YEC: Copyright 2022 Narodowy Instytut Fryderyka Chopina (https://polishscores.org)
!!!YEM: License CC-BY-4.0 (https://creativecommons.org/licenses/by/4.0)
